src/images/icons/icon-about-2.svg

<svg width="82" height="50" viewBox="0 0 82 50" fill="none" xmlns="http://www.w3.org/2000/svg">
<g clip-path="url(#clip0)">
<path fill-rule="evenodd" clip-rule="evenodd" d="M49.2 37.6094L50.5151 36.217L51.2887 36.9906V38.383L49.9736 39.6981H49.2V37.6094ZM77.9 47.666L80.2981 45.2679V44.3396L80.9943 43.7208L82 44.7264L78.5189 48.2849L77.9 47.666ZM74.1868 46.8151V45.5H75.4245V46.1962L74.7283 46.8151H74.1868ZM67.3019 43.4113V39.466L68.3075 38.4604H69.4679L71.1698 36.8359L71.5566 37.2227L73.1811 35.5981L73.9547 36.3717L73.4906 37.0679L74.2642 37.7642H74.8057V36.8359L75.3472 36.217L75.734 36.6811V38.4604L77.3585 40.0849V43.334L75.734 44.8811H73.0264V43.0245L72.4849 42.4057H71.1698L70.3189 43.334H67.3019V43.4113ZM73.3358 33.5868H76.4302L77.3585 34.5151V35.7528H76.6623L76.0434 35.2113H74.9604L73.3358 33.5868ZM69.7 33.2774L70.2415 33.7415V34.5151H69.2358V33.2774H69.7ZM66.6057 32.3491H67.1472L68.4623 31.1113L69.2358 31.8849V33.0453L68.4623 33.8189H66.5283V32.3491H66.6057ZM62.8925 31.9623L63.5113 31.3434L65.8321 33.5868V34.2057H66.4509L66.7604 34.5151H68.9264L69.5453 35.2113H66.683L66.2962 34.8245H65.6L62.8925 31.9623ZM72.4849 18.5019L73.2585 17.651L74.4189 18.8113L73.2585 19.8943L73.5679 20.2811V22.0604L72.1755 23.3755H71.0151V22.6793L72.3302 21.3642H73.0264V20.1264L72.4849 19.5076V18.5019ZM35.3528 20.5132H37.2094V19.7396L36.5906 19.1208L37.2868 18.4245H37.9057L38.6792 17.651H38.9887L39.5302 17.1094V15.717H39.917L40.0717 15.9491V16.7227L40.3038 16.9547H41L41.3868 16.6453H42.8566V15.3302L43.6302 14.5566H42.3925V13.1642L42.083 13.3962V14.7887L41.5415 15.3302V16.2585H40.7679L39.7623 15.3302H38.7566V13.551L42.3925 9.9151H44.9453L45.4868 10.4566H46.5698V12.1585L49.2774 9.3736H51.2887V6.97548H53.6094L57.0132 3.57171H59.0245V5.42831L60.5717 3.88114H62.7377L64.0528 5.11888L65.6 3.57171H69.0811L69.5453 4.03586H72.0981L72.8717 3.33963H77.9V6.27926L76.7396 7.51699V9.76039H75.5792V11.6943L76.1208 12.2359V14.7887L73.9547 12.6227V9.76039H73.1038V11.0755H71.0924L69.8547 12.3132V14.2472H71.866V18.734L70.1641 20.5132L71.2472 21.5962L70.3962 22.5245L68.4623 20.5906L67.4566 21.5189L70.1641 24.2264V24.9227L68.3075 26.7793H66.683L65.5226 27.8623L66.8377 29.1774L65.6774 30.2604L64.9038 29.4868L64.1302 30.2604L65.0585 31.266V31.8076L65.4453 32.1944H64.9038L64.1302 31.4208V30.8793L63.5887 30.6472V28.4811L63.2792 28.1717L63.0472 28.4811H62.5057V27.9396L61.5 27.0113H60.5717L58.7924 28.7906V30.183L58.0962 30.9566L57.5547 30.3377L56.5491 28.9453V26.934H55.9302L55.0792 25.7736H52.5264L52.0623 25.3094L51.5981 25.7736L50.8245 25.0774V24.6132H50.2057V25.0774L51.7528 26.6245L52.2943 26.0057L53.1453 26.934L50.7472 29.3321H49.1226V28.4811L48.2717 27.6302V26.8566L47.1887 25.6962H46.4925V26.6245L48.117 28.1717V28.9453L49.5094 30.2604H50.8245V31.8076L48.1943 34.2057V36.9906L47.034 38.151V39.6981L44.6358 42.0189H43.0113L41.1547 40.1623V34.6698L39.8396 33.3547V32.1944L38.9887 31.3434L38.2924 31.9623H35.817L33.3415 29.4868V26.6245L36.9 23.066H40.6132L41.4641 23.8396H42.1604L42.6245 24.3811L43.3208 23.6849H46.183L46.7245 23.1434V22.6793H45.0226L44.5585 22.2925V21.5189H43.7849L43.3981 21.8283L43.9396 22.4472L43.7075 22.6793H43.2434L42.934 22.3698V21.3642L41.4641 19.8943H40.8453V20.3585L42.3925 21.9057L41.5415 22.834L41 22.4472L41.5415 21.8283L39.8396 20.2038L39.2208 20.8227L38.834 20.4359L37.7509 21.5189V22.2151L37.2094 22.7566H36.2811L35.3528 21.9057V20.5132ZM36.3585 15.5623L36.8226 15.1755L37.3642 15.717V16.2585L38.1377 17.0321V17.7283L37.7509 18.1925H36.3585V17.7283L36.7453 17.4189V16.8H36.3585V15.5623ZM35.3528 18.1151V17.2642L35.7396 16.8774V16.4906H36.3585V17.5736L35.8943 18.1151H35.3528ZM39.4528 3.80378H42.6245V4.8868L41.5415 6.04718H40.6132L39.3755 4.80944L39.4528 3.80378ZM32.4906 11.9264H33.3415L34.1151 11.0755L35.1208 12.0811L33.883 13.2415H32.5679L32.4906 11.9264ZM0 8.9868L0.850943 8.13586V6.43397L2.01132 5.27359H3.55849L5.10566 3.72643H6.49811L9.51509 6.66605H12.1453L14.466 8.9868H16.1679L17.0962 8.0585H18.7208L19.8811 9.14152V10.4566L18.9528 11.3076H17.8698L16.3226 12.8547V14.4019L18.4113 16.4906H19.5717L20.5 15.5623V12.9321H22.2019L23.2849 14.0925V15.9491L25.1415 17.7283L24.3679 18.5793L23.6717 17.9604H22.2792L21.8151 18.3472L22.5113 18.966L21.6604 19.817H20.8094L18.7981 21.8283V22.9113L17.4057 24.2264V25.9283H16.7094V25.3868L15.9358 24.6132H13.383L12.6094 25.3868V27.0887L13.1509 27.6302H13.9245L14.5434 27.0113H15.1623V28.7132H16.2453V29.951L16.7094 30.4925L16.9415 30.183H17.4057L17.9472 30.7245L18.7981 29.7962H21.3509L22.666 31.1113H24.1358L24.8321 31.8076V32.8906H25.683L26.3019 33.4321H27.8491L28.7774 34.283V35.4434L27.6943 36.4491V38.151L25.8377 40.0076V41.2453L24.2906 42.6377H23.4396V43.4887L22.2792 44.6491V46.351L21.583 46.9698V48.6717L22.2792 49.3679V49.9094H20.7321L19.9585 49.0585V44.2623L19.417 43.7981V38.2283L18.4887 37.3774V36.4491L16.5547 34.5151V32.9679L17.5604 31.8849V31.1887H16.7094L14.8528 29.3321H13.9245L13.1509 28.6359H12.1453L9.97925 26.4698H9.51509L8.27736 25.2321V24.2264L6.42075 22.3698V18.6566L7.42641 17.651V12.9321L5.10566 10.6887H3.01698L1.54717 12.2359L0 11.3076V8.9868H0ZM24.9868 5.58303V4.26793L27.5396 1.7151H29.7057L30.7113 0.709444H33.1094L35.5075 3.10756L32.9547 5.8151V10.766H30.9434L29.6283 12.0811V12.9321L27.5396 15.0208L26.3792 13.8604V11.3849L26.8434 10.9208V5.66039L24.9868 5.58303ZM19.417 6.66605H21.583L23.9038 8.9868V10.9981L22.3566 12.6227L20.8868 11.1528H22.0472V9.06416H20.5774L19.4943 8.0585L19.417 6.66605ZM17.1736 5.73775H18.7981V7.59435H17.7925L17.1736 6.74341V5.73775ZM18.1019 4.34529L19.8811 6.12454H21.7377L22.5113 5.42831H20.3453L18.7208 3.80378L18.1019 4.34529ZM20.0358 1.25095L20.8094 2.02454L19.9585 2.87548L19.1075 2.1019L20.0358 1.25095ZM14.9302 2.64341L16.3226 1.32831H18.4113V3.88114H16.4774L14.9302 2.64341ZM13.8472 4.19058H15.317V5.66039H16.9415V7.90378L16.2453 8.60001H14.6981L13.6925 7.59435V6.89812L12.8415 6.12454V5.27359L13.8472 4.19058ZM21.1189 4.19058V1.40567L22.2792 0.0905762H26.9208L27.8491 1.01888L26.534 2.41133H24.9094L22.2792 5.19624L21.1189 4.19058Z" fill="#B3B3B3"/>
<path fill-rule="evenodd" clip-rule="evenodd" d="M45.2548 20.281C47.034 19.3527 49.2001 19.6622 50.5925 21.132L58.4831 29.0225C60.2623 30.8018 60.2623 33.7414 58.4831 35.598C56.6265 37.3773 53.7642 37.3773 51.9076 35.598L44.0171 27.7074C42.5473 26.315 42.2378 24.149 43.1661 22.3697L32.1039 11.3074C31.7944 11.3848 31.5623 11.3074 31.3303 11.2301L28.5454 9.99235C28.468 9.99235 28.468 9.91499 28.3906 9.83763C28.3133 9.76027 28.2359 9.68291 28.0812 9.60556L25.6831 5.58291C25.2189 4.88669 25.1416 4.1131 25.6831 3.57159L26.4567 2.79801C26.9982 2.2565 27.7718 2.41122 28.468 2.79801L32.4906 5.27348C32.568 5.4282 32.6454 5.50555 32.7227 5.58291C32.8001 5.58291 32.8001 5.66027 32.8774 5.73763L34.1152 8.52254C34.1925 8.75461 34.2699 8.98669 34.1925 9.21876L45.2548 20.281Z" fill="white"/>
<path fill-rule="evenodd" clip-rule="evenodd" d="M26.4566 29.2547L36.5906 19.1207L41.0773 23.6075C40.7679 24.8452 40.8453 26.083 41.1547 27.3207L32.8 35.5981C31.0207 37.3773 28.2358 37.3773 26.4566 35.5981C24.7547 33.8188 24.7547 31.0339 26.4566 29.2547ZM41.8509 13.9377L43.7075 12.0811C42.8566 9.14145 43.5528 5.89239 45.7962 3.57164C48.1943 1.09617 51.6755 0.477298 54.6924 1.63768L50.2056 6.12447C48.7358 7.59428 48.7358 9.99239 50.2056 11.4622C51.6755 12.932 54.0736 12.932 55.6207 11.4622L60.1075 6.97541C61.1132 10.0698 60.4943 13.4735 58.1736 15.949C56.0849 18.0377 53.1453 18.7339 50.4377 18.2697C49.1226 17.883 47.5755 17.883 46.183 18.2697L41.8509 13.9377ZM28.3132 30.8018C27.4623 31.5754 27.4623 32.8905 28.3132 33.7414C29.0868 34.515 30.4792 34.515 31.2528 33.7414C32.0264 32.9679 32.0264 31.6528 31.2528 30.8018C30.4792 29.9509 29.0868 29.9509 28.3132 30.8018Z" fill="white"/>
</g>
<defs>
<clipPath id="clip0">
<rect width="82" height="50" fill="white"/>
</clipPath>
</defs>
</svg>

<svg xmlns="http://www.w3.org/2000/svg" width="82" height="50" fill="none" viewBox="0 0 82 50">
	<g fill-rule="evenodd" clip-path="url(#icon-about-2-a)" clip-rule="evenodd">
		<path fill="#B3B3B3" d="m49.2 37.61 1.315-1.393.774.774v1.392l-1.315 1.315H49.2V37.61zm28.7 10.056 2.398-2.398v-.928l.696-.62L82 44.727l-3.481 3.559-.619-.619zm-3.713-.85V45.5h1.237v.696l-.696.62h-.541zm-6.885-3.405v-3.945l1.005-1.006h1.16l1.703-1.624.387.387 1.624-1.625.774.774-.464.696.773.696h.542v-.928l.541-.619.387.464v1.78l1.625 1.624v3.249l-1.625 1.547h-2.708v-1.856l-.541-.62H71.17l-.851.929h-3.017v.077zm6.034-9.824h3.094l.928.928v1.238h-.696l-.619-.542H74.96l-1.624-1.624zm-3.636-.31.541.465v.773h-1.005v-1.238h.464zm-3.094-.928h.541l1.315-1.238.774.774v1.16l-.774.774h-1.934v-1.47h.078zm-3.713-.387.618-.619 2.321 2.244v.619h.619l.31.31h2.165l.62.695h-2.863l-.387-.386H65.6l-2.707-2.863zm9.592-13.46.773-.851 1.16 1.16-1.16 1.083.31.387v1.78l-1.392 1.314h-1.16v-.696l1.314-1.315h.696v-1.238l-.541-.618v-1.006zm-37.132 2.011h1.856v-.773l-.618-.62.696-.696h.619l.773-.773h.31l.541-.542v-1.392h.387l.155.232v.774l.232.232H41l.387-.31h1.47V15.33l.773-.773h-1.238v-1.393l-.309.232v1.393l-.541.541v.929h-.774l-1.006-.929h-1.005v-1.779l3.636-3.636h2.552l.542.542h1.083v1.701l2.707-2.784h2.012V6.975h2.32l3.404-3.403h2.012v1.856l1.547-1.547h2.166l1.315 1.238L65.6 3.572h3.481l.464.464h2.553l.774-.696H77.9v2.94l-1.16 1.237V9.76h-1.16v1.934l.54.542v2.553l-2.165-2.166V9.76h-.851v1.316h-2.012l-1.237 1.237v1.934h2.011v4.487l-1.702 1.78 1.083 1.082-.85.928-1.935-1.933-1.005.928 2.707 2.707v.697l-1.856 1.856h-1.625l-1.16 1.083 1.315 1.315-1.16 1.083-.774-.773-.774.773.928 1.006v.542l.387.386h-.541l-.774-.773v-.542l-.541-.232v-2.166l-.31-.31-.232.31h-.541v-.541L61.5 27.01h-.928l-1.78 1.78v1.392l-.696.774-.541-.62-1.006-1.392v-2.011h-.619l-.85-1.16h-2.554l-.464-.465-.464.465-.773-.697v-.464h-.62v.464l1.548 1.547.541-.618.851.928-2.398 2.398h-1.624v-.85l-.851-.852v-.773l-1.083-1.16h-.697v.928l1.625 1.547v.773l1.392 1.315h1.316v1.548l-2.63 2.398v2.785l-1.161 1.16v1.547l-2.398 2.32H43.01l-1.856-1.856V34.67l-1.315-1.315v-1.16l-.851-.852-.697.62h-2.475l-2.475-2.476v-2.862l3.558-3.559h3.713l.851.774h.696l.465.541.696-.696h2.862l.541-.542v-.464h-1.701l-.465-.386v-.774h-.773l-.387.31.542.618-.232.232h-.465l-.309-.31v-1.005l-1.47-1.47h-.619v.465l1.547 1.547-.85.928-.542-.387.541-.619-1.701-1.624-.62.619-.386-.387-1.083 1.083v.696l-.542.542h-.928l-.928-.851v-1.393zm1.005-4.95.465-.388.541.542v.542l.774.773v.696l-.387.464h-1.392v-.464l.386-.31V16.8h-.386v-1.238zm-1.005 2.552v-.85l.387-.388v-.386h.618v1.083l-.464.541h-.541zm4.1-14.311h3.171v1.083l-1.083 1.16h-.928L39.376 4.81l.077-1.005zm-6.962 8.122h.85l.774-.85 1.006 1.005-1.238 1.16h-1.315l-.077-1.315zM0 8.986l.85-.85V6.434l1.161-1.16h1.547l1.548-1.548h1.392l3.017 2.94h2.63l2.321 2.32h1.702l.928-.928h1.625l1.16 1.084v1.315l-.928.85H17.87l-1.547 1.548v1.547l2.088 2.089h1.16l.929-.929v-2.63h1.702l1.083 1.16v1.857l1.857 1.78-.774.85-.696-.619h-1.393l-.464.387.696.619-.85.851h-.852l-2.01 2.011v1.083l-1.393 1.315v1.702h-.697v-.541l-.773-.774h-2.553l-.774.774v1.702l.542.541h.774l.618-.619h.62v1.702h1.082v1.238l.464.541.233-.309h.464l.541.541.851-.928h2.553l1.315 1.315h1.47l.696.697v1.083h.851l.619.541h1.547l.928.851v1.16l-1.083 1.006v1.702l-1.856 1.857v1.237l-1.547 1.393h-.851v.85l-1.16 1.161v1.702l-.697.619v1.702l.696.696v.541h-1.547l-.773-.85v-4.797l-.542-.464v-5.57l-.928-.85v-.929l-1.934-1.934v-1.547l1.005-1.083v-.696h-.85l-1.857-1.857h-.928l-.774-.696h-1.006L9.98 26.47h-.464l-1.238-1.238v-1.006L6.421 22.37v-3.713l1.005-1.006v-4.719l-2.32-2.243H3.017l-1.47 1.547L0 11.308V8.987zm24.987-3.403V4.268l2.553-2.553h2.166L30.71.71h2.398l2.398 2.399-2.552 2.707v4.951h-2.012l-1.315 1.315v.851l-2.088 2.089-1.16-1.16v-2.476l.463-.464V5.66l-1.856-.078zm-5.57 1.083h2.166l2.32 2.32v2.012l-1.546 1.625-1.47-1.47h1.16V9.064h-1.47L19.494 8.06l-.077-1.393zm-2.243-.928h1.624v1.856h-1.005l-.62-.85V5.737zm.928-1.393 1.78 1.78h1.856l.773-.697h-2.166l-1.624-1.624-.62.541zm1.934-3.094.773.774-.85.85-.851-.773.928-.851zM14.93 2.643l1.393-1.315h2.088v2.553h-1.934L14.93 2.643zm-1.083 1.548h1.47v1.47h1.625v2.243l-.697.696h-1.547l-1.005-1.006v-.696l-.851-.773v-.851l1.005-1.083zm7.272 0V1.406L22.279.09h4.642l.928.928-1.315 1.392h-1.625l-2.63 2.785-1.16-1.005z"/>
		<path fill="#fff" d="M45.255 20.281c1.779-.928 3.945-.619 5.337.851l7.891 7.89c1.78 1.78 1.78 4.72 0 6.576a4.717 4.717 0 0 1-6.575 0l-7.89-7.89c-1.47-1.393-1.78-3.559-.852-5.338L32.104 11.307c-.31.078-.542 0-.774-.077l-2.785-1.238c-.077 0-.077-.077-.154-.154a1.067 1.067 0 0 0-.31-.232l-2.398-4.023c-.464-.696-.541-1.47 0-2.011l.774-.774c.541-.542 1.315-.387 2.011 0l4.023 2.475c.077.155.154.233.232.31.077 0 .077.077.154.155l1.238 2.785c.078.232.155.464.078.696L45.255 20.28z"/>
		<path fill="#fff" d="M26.457 29.255 36.59 19.12l4.486 4.487c-.31 1.237-.232 2.475.078 3.713L32.8 35.598c-1.78 1.78-4.564 1.78-6.343 0a4.579 4.579 0 0 1 0-6.343zM41.85 13.938l1.857-1.857c-.851-2.94-.155-6.189 2.088-8.51 2.398-2.475 5.88-3.094 8.896-1.933l-4.486 4.486a3.782 3.782 0 0 0 0 5.338c1.47 1.47 3.868 1.47 5.415 0l4.486-4.487c1.006 3.095.387 6.498-1.933 8.974-2.09 2.089-5.029 2.785-7.736 2.32-1.315-.386-2.863-.386-4.255 0l-4.332-4.331zM28.313 30.802c-.85.773-.85 2.089 0 2.94.774.773 2.166.773 2.94 0 .773-.774.773-2.09 0-2.94-.774-.851-2.166-.851-2.94 0z"/>
	</g>
	<defs>
		<clipPath id="icon-about-2-a">
			<path fill="#fff" d="M0 0h82v50H0z"/>
		</clipPath>
	</defs>
</svg>
